X:1
T:Amazing Grace
C:John Newton
M:3/4
L:1/4
Q:80
K:G
%% Features dotted notes prominently (dotted half notes in 3/4 time)
D | G3/2 B/2 G | B2 A | G2 E | D3 |
D | G3/2 B/2 G | B2 A | d3 |
B | d3/2 B/2 d | B2 G | G3/2 E/2 D | D3 |
D | G3/2 B/2 G | B2 A | G3 |]
